X:1
T:Title
%%score { 1 | 2 }
L:1/8
M:6/8
K:Db
V:1 treble nm="Grand Piano"
V:2 bass 
V:1
 z3 z2[Q:1/4=100] [FA] | [FA]>[EG][DF] [DF][EG][FA] | B3 d2 d | [Fd]>[FA][FA] [FA][A,EG][A,DF] | %4
[M:5/8] [A,CE]-[A,CE]- [A,CE]3 |[M:1/8] [CGA] |[M:3/4] [DFA]>[A,EG] [A,DF][A,DF] [A,EG][DFA] | %7
 B3 d2 d | d>A A[FA] [EG][K:bass][G,CE] |[M:5/8] [F,D]-[F,D]- [F,D]3 |[M:1/8][K:treble] [DFA] | %11
[M:3/4] [DFA]>[A,EG] [A,DF][A,DF] [A,EG][DFA] | B3 d2 d | [Fd]>[FA] [FA][FA] [A,EG][A,DF] | %14
[M:5/8] [A,CE]-[A,CE]- [A,CE]3 |[M:1/8] [CGA] |[M:3/4] [DFA]>[A,EG] [A,DF][A,DF] [A,EG][DFA] | %17
 B3 d2 d | d>A A[FA] [EG][CE] |[M:5/8] D-D- D3 |[M:1/8] A |[M:3/4] [Fd]>[Fd] [Fd]c de | %22
 [Fd]3 [FA]2 [FA] | [Fd]>[Fd] [Fd]c de |[M:5/8] [Fd]-[Fd]- [Fd]3 |[M:1/8] A |[M:3/4] B>B Bd cB | %27
 [GB]3 [FA]2 [FA] | c>c c[Gc] [GB][Gc] |[M:5/8] [Fd]-[Fd]- [Fd]3 |] %30
V:2
 z3 z2 [D,D] | [D,D]>[D,A,][D,A,] [D,A,][D,A,][D,D] | [G,DG]3 [G,B,G]2 [G,B,G] | %3
 [D,A,]>[D,D][D,D] [D,D]D,D, |[M:5/8] A,,-A,,- A,,3 |[M:1/8] A,, |[M:3/4] D,>D, D,D, D,D, | %7
 [G,DG]3 [G,B,G]2 [G,B,G] | [A,F]>[A,F] [A,F][K:bass][A,,A,] [A,,A,]A,, |[M:5/8] D,-D,- D,3 | %10
[M:1/8] D, |[M:3/4] D,>D, D,D, D,D, | [G,DG]3 [G,B,G]2 [G,B,G] | [D,A,]>[D,D] [D,D][D,D] D,D, | %14
[M:5/8] A,,-A,,- A,,3 |[M:1/8] A,, |[M:3/4] D,>D, D,D, D,D, | [G,DG]3 [G,B,G]2 [G,B,G] | %18
 [A,F]>[A,F] [A,F][K:bass][A,,A,] [A,,A,][A,,G,] |[M:5/8] [D,F,]-[D,F,]- [D,F,]3 |[M:1/8] A, | %21
[M:3/4] [D,A,]>[D,A,] [D,A,][K:treble][A,E] [A,F][A,G] | [D,A,]3 [D,D]2 [D,D] | %23
 [D,A,]>[D,A,] [D,A,][K:treble][A,E] [A,F][A,G] |[M:5/8][K:bass] [D,A,]-[D,A,]- [D,A,]3 | %25
[M:1/8] [F,D] |[M:3/4] [G,DG]>[G,DG] [G,DG][G,B,G] [G,CG][G,DG] | [D,D]3 [D,D]2 [D,D] | %28
 [A,E]>[A,E] [A,E][A,,A,] [A,,A,][A,,A,] |[M:5/8] [D,A,]-[D,A,]- [D,A,]3 |] %30

